X:1
T:Title
%%score { ( 1 3 ) | 2 }
L:1/8
Q:1/4=84
M:6/8
K:G
V:1 treble nm="Grand Piano"
V:3 treble 
V:2 bass 
V:1
 DDD B>BB | AGF G3 | DDD [Fc]>[Fc][Fc] | BAG A3 | BBB [=Fd]>[Fd][Fd] | [Ec][EB][Ec] E3 | DDD B>BB | %7
w: John~R.~Sweney * * * * *|||||||
 AGF [B,DG]3 | .[Bd]6 | .[FA]6 | .[Ac]6 | [GB]6 | G3 z3 | c-[Ec-][Ec-] [Ec]de | %14
w: |||||||
 d-[Gd-][Gd-] [Fd][Fc][FA] | [DG]6 |] %16
w: ||
V:2
 [G,B,][G,B,][G,B,] [G,D]>[G,D][G,D] | [D,CD][D,B,D][D,A,D] [G,B,D]3 | %2
 [F,A,][F,A,][F,A,] [D,A,]>[D,A,][D,A,] | [G,D][F,A,D][E,A,^C] [D,F,D]3 | %4
 [G,D][G,D][G,D] [B,,G,]>[B,,G,][B,,G,] | [C,G,][C,G,][C,G,] [C,G,C]3 | %6
 [D,G,B,][D,G,B,][D,G,B,] [D,G,D]>[D,G,D][D,G,D] | [D,CD][D,B,D][D,A,D] G,,3 | G,G,G, G,G,G, | %9
 D,D,D, D,DD | D,D,D, D,D,D, | G,G,G, .G,3 | [G,B,D][G,B,][G,B,] [G,B,][K:treble][G,CF][G,D=F] | %13
 [C,C][C,G,][C,G,] .[C,G,]3 | [D,B,][D,B,][D,B,] [D,A,][D,A,][D,C] | [G,B,]6 |] %16
V:3
 x6 | x6 | x6 | x6 | x6 | x6 | x6 | x6 | DDD D[DAc][DGB] | DDD .D3 | DDD D[DGB][DFA] | DDD .D3 | %12
 z DD GAB | .E3 z3 | .G3 z3 | x6 |] %16

